X: 1
T: Hannun Hambo
C: Hannu Sepp\"anen 2014
Z: 2013 John Chambers <jc:trillian.mit.edu>
N: The date on this tune is a bit dubious. ;-)
M: 3/4
L: 1/8
K: Am
e |:\
"Am"a2 e>g "D"^f>d | "C"e2 c>e "D"d>B | "F"(3cdc A>c "G"B>G | "Am"A>G A<B c>e |\
"Am"a2 e>g "D"^f>d | "C"e2 c>e "D"d>B | "F"(3cdc A>c "G"B>G | "Am"A2 A4 :|
|:\
"G"B2 G>B d>B | "F(Am)"c2 B>c A2 | "G"B2 G>B d>B | "C"c<d e4 |\
"F"f2 f<g a>f | "C"e>f e<d c2 | "G"B>d c<B G>B | "Am"A2 A4 :|

%%sep 1 1 500

